X: 453
T: The Black Haired Darling
N:"Airily" "1st Setting"
N:Irish title: an ceann du.b .dileas
B:O'Neill's 453
Z:Transcribed by henrik.norbeck@mailbox.swipnet.se
M:6/8
L:1/8
K:D
A/A/Bc ddg | f3/2(e/f/g/) .f.e.d | cAg .f.e.d | (cA).d D2 (D/E/) |
.F(.F/.G/.A/.B/) cAA | (~d3/2e/f/g/) ~f.e.d | (c<A) {A}(G/F/) G3/2(B/A/G/) | (~FD).D D3 ||
.D(d/e/f/g/) a2 a | aag f2 e | f/f/fg Ta2 g | (~fe)f D2 (D/E/) |
.F(.F/.G/.A/.B/) cAA | .d(.d/.e/.f/.g/) f>ed | (c<A) {A}(G/F/) G3/2(B/A/G/) | (~FD).D D3 ||


